X: 11379
T: Earl's Chair, The
R: reel
M: 4/4
K: Dmajor
"Bm" B2 dB BAFA|"Bm" B2dB BAFB|"D" AFF2 DFF2|"D" AFdB ADFA|
"G" B2dB BAFA|"G" B2dB BAFB|"D" AFAB defd|1 "A" edef "D" d3A:|2 "A" edef "D" d3f||
|:"A" e3f "D" d3f|"A" edef "D" dBAf|"A" e3f "D" d3e|"D" fedB ABdf|
"A" edef eBB2|"Bm" gBB2 defg|"D" afbf afeg|1 "D" fedB ABdf:|2 "D" fedB ADFA||

